public/assets/images/str/au-03.svg

<svg fill="none" height="50" viewBox="0 0 65 50" width="65" xmlns="http://www.w3.org/2000/svg"><path d="m4.13783 14.4324c1.46569-1.4623 2.86962-2.9867 4.39705-4.377 4.88952-4.64644 10.96702-7.83158 17.55242-9.199036 5.4354-1.229901 11.0841-1.133783 16.475.280336 5.3909 1.41412 10.3678 4.10525 14.5156 7.84894 1.5924 1.41646 2.9444 3.08816 4.0006 4.94956.0975.1603.1787.3271.2632.4972s0 .0753 0 .0982c-1.2317-.8833-2.4309-1.8255-3.7048-2.6498-4.6012-3.09406-10.0695-4.615-15.596-4.33782-6.3387.41787-12.4078 2.73652-17.4258 6.65712-.3454.2891-.7825.4436-1.2316.4351h-19.11567zm57.06087 21.0413c-2.7028 3.1983-5.8317 6.0055-9.2978 8.3419-4.4577 3.0694-9.5674 5.0457-14.9201 5.7706-5.1192.7959-10.35.4407-15.3166-1.0401-4.9667-1.4808-9.5459-4.0504-13.4088-7.5243-1.78441-1.5482-3.23541-3.4474-4.26381-5.5809l.57523.458c3.66376 3.0902 8.03588 5.2109 12.71988 6.1698 5.1998.9323 10.562.3369 15.4368-1.7175 2.9691-1.1721 5.759-2.7602 8.2872-4.7172.1754-.1332.388-.2076.6077-.2127h19.3073zm-10.1493-7.4522h4.6408v1.5703c-.0454.4072.0461.8181.26 1.1668.2138.3487.5377.6151.9197.7567.4612.2009.9702.2635 1.4659.1806.4957-.083.9572-.3081 1.329-.6484.3251-.2624.5653-.6161.6903-1.0163.125-.4001.1291-.8286.0117-1.2311-.093-.2819-.2543-.536-.4693-.7393-.2151-.2034-.4771-.3495-.7624-.4253-1.2935-.4907-2.5804-.9945-3.8641-1.5179-.3835-.1536-.7588-.3273-1.1245-.5201-.6615-.2578-1.2335-.705-1.6453-1.2863-.4118-.5814-.6453-1.2715-.6718-1.9851-.0648-.8014.0986-1.6049.471-2.3164.3723-.7114.9383-1.3013 1.6317-1.7008 1.2746-.7238 2.6984-1.1407 4.1599-1.2179 1.4614-.0771 2.9208.1874 4.2637.773.7574.2728 1.4072.7843 1.8528 1.4586.4456.6742.6631 1.4752.6203 2.2839h-4.527v-1.3053c.0552-1.1221-.2828-1.6847-1.17-1.9236-.4752-.1495-.9858-.1395-1.4548.0287-.4689.1682-.8709.4854-1.1451.9037-.2317.4143-.3028.9002-.1996 1.3642.1032.4639.3735.873.7586 1.1482.4257.2878.8872.5234 1.3682.7 1.105.4253 2.2099.8048 3.3148 1.2301.3673.1537.715.3336 1.0563.5397.5986.3158 1.1092.7773 1.4852 1.3426s.6055 1.2163.6675 1.8937-.0454 1.3597-.3124 1.9847c-.267.6249-.6852 1.1726-1.2164 1.5932-1.0464.8996-2.3399 1.4623-3.7048 1.6095-1.7794.3026-3.6018.2314-5.3525-.2093-1.0215-.1815-1.9366-.7464-2.5603-1.5807-.6238-.8343-.9097-1.8758-.8001-2.9142zm-33.9674-5.4173h-4.826l-.1625-2.1165c-.0137-.3996-.1525-.7845-.3964-1.1-.244-.3155-.5807-.5453-.9621-.6567-.6935-.2584-1.45744-.2501-2.14529.0233-.68785.2735-1.25126.7929-1.58226 1.4586-1.29397 2.7163-1.93944 5.6995-1.88491 8.7115-.08461.6318.07839 1.2719.45448 1.7848.37609.513.93574.8584 1.56043.9632.64664.1295 1.31771.0396 1.90813-.2558s1.06682-.7795 1.35472-1.3766c.403-.8768.754-1.7764 1.0529-2.6923h4.9788c-.1795 1.063-.6879 2.0419-1.4527 2.7969-1.6314 1.6357-3.7958 2.6269-6.09343 2.7872-1.74891.2208-3.52461.0544-5.20301-.4874-1.08342-.3176-2.03192-.9872-2.697431-1.9045-.665517-.9173-1.0106062-2.0306-.98140537-3.1661-.04483413-1.7524.28545937-3.494.96845537-5.1065.360391-.8811.890551-1.6817 1.559891-2.3554.66935-.6738 1.46462-1.2075 2.33993-1.5702 2.70812-1.2152 5.7494-1.4543 8.6121-.6772 1.0169.2042 1.9321.7569 2.5898 1.5638.6577.807 1.0173 1.8185 1.0175 2.8623.0065.1734 0 .3468-.0195.5202l.0065-.0066zm13.8249 10.0267h-2.5999c-.195 0-.4323-.2617-.5492-.4646-2.0207-3.3909-4.028-6.7899-6.022-10.1967l-.3705-.5791c-.1235.4973-.2275.88-.325 1.2726-.715 3.0522-1.4429 6.1043-2.1026 9.1696-.1398.6346-.3575.9617-1.053.8276-.1968-.0164-.3946-.0164-.5915 0 1.053-5.0902 2.1027-10.1215 3.1589-15.1888h4.2735c.1215.0327.2349.0903.3333.1691s.1797.1771.2387.2889c1.5924 2.6367 3.1589 5.2995 4.7416 7.9166.1137.193.2404.3697.4387.6772l2.0474-9.042h1.6704zm2.1026 0 .6305-1.1221c2.5349-4.4621 5.0828-8.9242 7.6046-13.3961.0822-.1829.2199-.3347.3935-.4335.1735-.0988.3737-.1395.5717-.1161 1.7582 0 1.768 0 2.4537 1.6422l5.3395 12.8335c.0747.1701.1365.3402.2307.5921h-4.696c-.117 0-.273-.1898-.325-.3501-.4582-1.1384-.8905-2.2866-1.2999-3.4447-.0291-.1382-.1087-.2603-.2231-.3421-.1144-.0819-.2552-.1174-.3944-.0995h-5.151c-.1312.0144-.2581.0558-.3727.1216-.1146.0659-.2145.1547-.2935.2611-.6825 1.1352-1.3357 2.3096-1.9759 3.4644-.0542.1307-.15.2396-.2724.3095-.1223.0699-.2644.0968-.4036.0765-.559-.0327-1.118-.0131-1.8199-.0131v.0164zm8.4236-10.5992h-.1917l-3.0321 5.1851h5.0632z" fill="#182f75"/></svg>

<svg width="65" height="50" viewBox="0 0 65 50" fill="none" xmlns="http://www.w3.org/2000/svg">
<path d="M4.13783 14.4324C5.60352 12.9701 7.00745 11.4457 8.53488 10.0554C13.4244 5.40896 19.5019 2.22382 26.0873 0.856364C31.5227 -0.373537 37.1714 -0.277419 42.5623 1.1367C47.9532 2.55082 52.9301 5.24195 57.0779 8.98564C58.6703 10.4021 60.0223 12.0738 61.0785 13.9352C61.176 14.0955 61.2572 14.2623 61.3417 14.4324C61.4262 14.6025 61.3417 14.5077 61.3417 14.5306C60.11 13.6473 58.9108 12.7051 57.6369 11.8808C53.0357 8.78674 47.5674 7.2658 42.0409 7.54298C35.7022 7.96085 29.6331 10.2795 24.6151 14.2001C24.2697 14.4892 23.8326 14.6437 23.3835 14.6352H4.26783L4.13783 14.4324ZM61.1987 35.4737C58.4959 38.672 55.367 41.4792 51.9009 43.8156C47.4432 46.885 42.3335 48.8613 36.9808 49.5862C31.8616 50.3821 26.6308 50.0269 21.6642 48.5461C16.6975 47.0653 12.1183 44.4957 8.2554 41.0218C6.47099 39.4736 5.01999 37.5744 3.99159 35.4409L4.56682 35.8989C8.23058 38.9891 12.6027 41.1098 17.2867 42.0687C22.4865 43.001 27.8487 42.4056 32.7235 40.3512C35.6926 39.1791 38.4825 37.591 41.0107 35.634C41.1861 35.5008 41.3987 35.4264 41.6184 35.4213H60.9257L61.1987 35.4737ZM51.0494 28.0215H55.6902V29.5918C55.6448 29.999 55.7363 30.4099 55.9502 30.7586C56.164 31.1073 56.4879 31.3737 56.8699 31.5153C57.3311 31.7162 57.8401 31.7788 58.3358 31.6959C58.8315 31.6129 59.293 31.3878 59.6648 31.0475C59.9899 30.7851 60.2301 30.4314 60.3551 30.0312C60.4801 29.6311 60.4842 29.2026 60.3668 28.8001C60.2738 28.5182 60.1125 28.2641 59.8975 28.0608C59.6824 27.8574 59.4204 27.7113 59.1351 27.6355C57.8416 27.1448 56.5547 26.641 55.271 26.1176C54.8875 25.964 54.5122 25.7903 54.1465 25.5975C53.485 25.3397 52.913 24.8925 52.5012 24.3112C52.0894 23.7298 51.8559 23.0397 51.8294 22.3261C51.7646 21.5247 51.928 20.7212 52.3004 20.0097C52.6727 19.2983 53.2387 18.7084 53.9321 18.3089C55.2067 17.5851 56.6305 17.1682 58.092 17.091C59.5534 17.0139 61.0128 17.2784 62.3557 17.864C63.1131 18.1368 63.7629 18.6483 64.2085 19.3226C64.6541 19.9968 64.8716 20.7978 64.8288 21.6065H60.3018V20.3012C60.357 19.1791 60.019 18.6165 59.1318 18.3776C58.6566 18.2281 58.146 18.2381 57.677 18.4063C57.2081 18.5745 56.8061 18.8917 56.5319 19.31C56.3002 19.7243 56.2291 20.2102 56.3323 20.6742C56.4355 21.1381 56.7058 21.5472 57.0909 21.8224C57.5166 22.1102 57.9781 22.3458 58.4591 22.5224C59.5641 22.9477 60.669 23.3272 61.7739 23.7525C62.1412 23.9062 62.4889 24.0861 62.8302 24.2922C63.4288 24.608 63.9394 25.0695 64.3154 25.6348C64.6914 26.2001 64.9209 26.8511 64.9829 27.5285C65.0449 28.2059 64.9375 28.8882 64.6705 29.5132C64.4035 30.1381 63.9853 30.6858 63.4541 31.1064C62.4077 32.006 61.1142 32.5687 59.7493 32.7159C57.9699 33.0185 56.1475 32.9473 54.3968 32.5066C53.3753 32.3251 52.4602 31.7602 51.8365 30.9259C51.2127 30.0916 50.9268 29.0501 51.0364 28.0117L51.0494 28.0215ZM17.082 22.6042H12.256L12.0935 20.4877C12.0798 20.0881 11.941 19.7032 11.6971 19.3877C11.4531 19.0722 11.1164 18.8424 10.735 18.731C10.0415 18.4726 9.27756 18.4809 8.58971 18.7543C7.90186 19.0278 7.33845 19.5472 7.00745 20.2129C5.71348 22.9292 5.06801 25.9124 5.12254 28.9244C5.03793 29.5562 5.20093 30.1963 5.57702 30.7092C5.95311 31.2222 6.51276 31.5676 7.13745 31.6724C7.78409 31.8019 8.45516 31.712 9.04558 31.4166C9.636 31.1212 10.1124 30.6371 10.4003 30.04C10.8033 29.1632 11.1543 28.2636 11.4532 27.3477H16.432C16.2525 28.4107 15.7441 29.3896 14.9793 30.1446C13.3479 31.7803 11.1835 32.7715 8.88587 32.9318C7.13696 33.1526 5.36126 32.9862 3.68286 32.4444C2.59944 32.1268 1.65094 31.4572 0.985429 30.5399C0.319912 29.6226 -0.0251772 28.5093 0.00402363 27.3738C-0.0408105 25.6214 0.289483 23.8798 0.972479 22.2673C1.33287 21.3862 1.86303 20.5856 2.53237 19.9119C3.20172 19.2381 3.99699 18.7044 4.8723 18.3417C7.58042 17.1265 10.6217 16.8874 13.4844 17.6645C14.5013 17.8687 15.4165 18.4214 16.0742 19.2283C16.7319 20.0353 17.0915 21.0468 17.0917 22.0906C17.0982 22.264 17.0917 22.4374 17.0722 22.6108L17.0787 22.6042H17.082ZM30.9069 32.6309H28.307C28.112 32.6309 27.8747 32.3692 27.7578 32.1663C25.7371 28.7754 23.7298 25.3764 21.7358 21.9696L21.3653 21.3905C21.2418 21.8878 21.1378 22.2705 21.0403 22.6631C20.3253 25.7153 19.5974 28.7674 18.9377 31.8327C18.7979 32.4673 18.5802 32.7944 17.8847 32.6603C17.6879 32.6439 17.4901 32.6439 17.2932 32.6603C18.3462 27.5701 19.3959 22.5388 20.4521 17.4715H24.7256C24.8471 17.5042 24.9605 17.5618 25.0589 17.6406C25.1573 17.7194 25.2386 17.8177 25.2976 17.9295C26.89 20.5662 28.4565 23.229 30.0392 25.8461C30.1529 26.0391 30.2796 26.2158 30.4779 26.5233L32.5253 17.4813H34.1957L30.9069 32.6309ZM33.0095 32.6309L33.64 31.5088C36.1749 27.0467 38.7228 22.5846 41.2446 18.1127C41.3268 17.9298 41.4645 17.778 41.6381 17.6792C41.8116 17.5804 42.0118 17.5397 42.2098 17.5631C43.968 17.5631 43.9778 17.5631 44.6635 19.2053L50.003 32.0388C50.0777 32.2089 50.1395 32.379 50.2337 32.6309H45.5377C45.4207 32.6309 45.2647 32.4411 45.2127 32.2808C44.7545 31.1424 44.3222 29.9942 43.9128 28.8361C43.8837 28.6979 43.8041 28.5758 43.6897 28.494C43.5753 28.4121 43.4345 28.3766 43.2953 28.3945H38.1443C38.0131 28.4089 37.8862 28.4503 37.7716 28.5161C37.657 28.582 37.5571 28.6708 37.4781 28.7772C36.7956 29.9124 36.1424 31.0868 35.5022 32.2416C35.448 32.3723 35.3522 32.4812 35.2298 32.5511C35.1075 32.621 34.9654 32.6479 34.8262 32.6276C34.2672 32.5949 33.7082 32.6145 33.0063 32.6145V32.6309H33.0095ZM41.4331 22.0317H41.2414L38.2093 27.2168H43.2725L41.4331 22.0317Z" fill="#182F75"/>
</svg>
